tools/download-figma-icons/icons/outlined-medium/upload.svg

<svg width="24" height="24" viewBox="0 0 24 24" fill="none" xmlns="http://www.w3.org/2000/svg">
<path fill-rule="evenodd" clip-rule="evenodd" d="M5.88084 19.5394H18.8235C20.8508 19.5394 22.5 17.8887 22.5 15.8599C22.5 13.8327 20.8508 12.1827 18.8235 12.1827C18.669 12.1827 18.516 12.1924 18.3645 12.2112C18.1223 12.2427 17.8778 12.1489 17.7143 11.9659C17.5515 11.7822 17.4878 11.5302 17.5448 11.2917C17.6415 10.889 17.6903 10.4645 17.6903 10.0317C17.6903 6.98147 15.2093 4.49973 12.1583 4.49973C9.11108 4.49973 6.63084 6.98147 6.63084 10.0317C6.63084 10.4465 6.29559 10.7817 5.88084 10.7817C3.4651 10.7817 1.50011 12.7452 1.50011 15.1587C1.50011 17.5744 3.4651 19.5394 5.88084 19.5394ZM19.1903 10.0317C19.1903 10.2545 19.1805 10.475 19.1595 10.694C21.858 10.8672 24 13.1179 24 15.8599C24 18.7159 21.678 21.0394 18.8235 21.0394H5.88084C2.63861 21.0394 0.00012207 18.4009 0.00012207 15.1587C0.00012207 12.1602 2.25911 9.67921 5.1661 9.32521C5.52159 5.77773 8.52233 2.99974 12.1583 2.99974C16.0358 2.99974 19.1903 6.15423 19.1903 10.0317ZM12.2891 9.09204C12.3806 9.13104 12.4624 9.18579 12.5314 9.25479L15.2973 12.0208C15.5898 12.314 15.5898 12.7888 15.2973 13.082C15.1503 13.2283 14.9583 13.3018 14.7664 13.3018C14.5751 13.3018 14.3831 13.2283 14.2361 13.082L12.7504 11.5948V16.793C12.7504 17.2077 12.4151 17.543 12.0004 17.543C11.5856 17.543 11.2504 17.2077 11.2504 16.793V11.5948L9.76388 13.082C9.47063 13.3745 8.99588 13.3745 8.70338 13.082C8.41013 12.7888 8.41013 12.314 8.70338 12.0208L11.4694 9.25479C11.5384 9.18579 11.6201 9.13029 11.7116 9.09204C11.8016 9.05454 11.8999 9.03429 12.0004 9.03429C12.1009 9.03429 12.1991 9.05454 12.2891 9.09204Z" fill="black"/>
</svg>

<svg width="24" height="24" viewBox="0 0 24 24" fill="none" xmlns="http://www.w3.org/2000/svg"><path fill-rule="evenodd" clip-rule="evenodd" d="M5.88 19.54h12.944a3.682 3.682 0 0 0 3.676-3.68 3.681 3.681 0 0 0-4.136-3.649.747.747 0 0 1-.82-.92A5.538 5.538 0 0 0 12.159 4.5a5.536 5.536 0 0 0-5.527 5.533.75.75 0 0 1-.75.75 4.384 4.384 0 0 0-4.38 4.377 4.385 4.385 0 0 0 4.38 4.38Zm13.31-9.508c0 .223-.01.443-.03.662A5.183 5.183 0 0 1 24 15.86a5.184 5.184 0 0 1-5.177 5.18H5.881A5.888 5.888 0 0 1 0 15.158a5.886 5.886 0 0 1 5.165-5.834C5.522 5.778 8.522 3 12.158 3a7.04 7.04 0 0 1 7.032 7.032Zm-6.9-.94a.765.765 0 0 1 .241.163l2.766 2.766a.751.751 0 0 1-1.06 1.061l-1.487-1.487v5.198a.75.75 0 1 1-1.5 0v-5.198l-1.486 1.487a.75.75 0 0 1-1.06-1.061l2.765-2.766a.753.753 0 0 1 .82-.163Z" fill="currentColor"/></svg>
